X: 1
T: Siobhan's Special Day
R: reel
M: 4/4
L: 1/8
K: Dmaj
|~F3 A ~E3 F|DF ~F2 ABAF|~G3 B ~F3 A|EFGA BGAG|
~F3 A ~E3 F|DF ~F2 ABde|fdge abag|1 fd{e}dc dBAG:|2 fd{e}dc d2 ed||
|:cdef ~e3 f|efga gfed|cdef geag|fd{e}dc d2 ed|
cdef ~e3 f|efge a3 g|fdge abag|fd{e}dc d2 ed:|

